X:92
T:MacDonald Lord of the Isles
T:Mac Dhomhnuill m\`or nan Eilean
R:Slow Air
S:Simon Fraser Collection
N:No.217
O:Scottish
M:3/4
L:1/8
Q:1/4=100
K:B Minor
F B>d|[^A2c2] F/z/ A B>d|c2 zf d>c|(B2 c/)z/ d c>B|A F>z A F>E|
(F2 B/)z/ c d>B|(c B>)z||c d>e|(f2 g/)z/ f e>d|c2 zf d>c|(B2 c/)z/ d c>B
|
A F>z A F>E|(F2 A/)z/ B A>E|F2 zA F>E|F2 zA F>E|(F2 B/)z/ c d>c|
(c B>)z||

